X:1
T:Grant Lodge
T:Grant Lodge
T:William Marshall
C:William Marshall
L:1/8
Q:1/8=128
M:4/4
K:G
V:1 treble 
V:1
|: g | G>D G<B A>G A<B | G<G G>B d3 g | G>D G<B A>G A<B | e<e e>d e3 g | G>D G<B A>G A<B | %6
 G<G G>B d3 g | G>D G<B A>G A<B | e<e e>d e3 f | g>a b<g d>e d<B | g>a b<g e2 e>f | %11
 g>a a<g d>e d<B | A<A B>d e3 f | g>a b<g d>e d<B | g>a b<g e2 e>f | g<b f<a e>f g<e | %16
 d<B B>A G3 :| %17

